X:1
T:Sknklt e Ns Ingars 
T:("Ost  br")
R:Sknklt
O:Dnaberga, Skne
S:efter Inga Persdotter
Z:Patrik Mnsson, 24/9 2008
M:2/4
L:1/8
K:G
"G" BD DB | BD DG | "am" A2 "D7" AF | D2 FG | A2 AA | d2 dd | "G" B2 GG | G2 "G7" BB |
"C" c2 cc | c2 Ac | "G" B2 BB | B2 GB | "D7" A2 AA | A2 FA | "G" AG GG | G2 z2 |
"G" bd db | bd dg | "D7" a2 af | d2 fg | a2 aa | d'2 d'd'| "G" b2 gg | g2 "G7" bb |
"C" c'2 c'c' | c'2 ac' | "G" b2 bb | b2 gb | "D7" a2 aa | a2 fa | "G" ag gg | g2 z2 |]
